img/contact-phone-call.svg

<svg width="20" height="20" viewBox="0 0 20 20" fill="none" xmlns="http://www.w3.org/2000/svg">
<path d="M17.1666 9.54079H19.0833C19.0833 4.62454 15.3717 0.916748 10.4487 0.916748V2.83341C14.3415 2.83341 17.1666 5.65379 17.1666 9.54079Z" fill="#BDBDBD"/>
<path d="M10.4584 6.66657C12.4737 6.66657 13.3334 7.5262 13.3334 9.54157H15.25C15.25 6.45095 13.549 4.7499 10.4584 4.7499V6.66657ZM13.7378 11.8828C13.5536 11.7154 13.3116 11.6261 13.0629 11.6338C12.8142 11.6415 12.5782 11.7456 12.4047 11.924L10.1114 14.2824C9.55944 14.177 8.44969 13.8311 7.30736 12.6916C6.16503 11.5483 5.81907 10.4357 5.71653 9.88753L8.07307 7.59328C8.25171 7.41994 8.35591 7.1839 8.3636 6.9351C8.37129 6.68631 8.28187 6.44428 8.11428 6.26024L4.57323 2.36653C4.40557 2.18191 4.17254 2.06993 3.92363 2.05436C3.67473 2.03879 3.42956 2.12087 3.24019 2.28315L1.16061 4.06661C0.994924 4.2329 0.896032 4.45421 0.882693 4.68857C0.868318 4.92815 0.594234 10.6034 4.9949 15.006C8.83398 18.8441 13.6429 19.1249 14.9673 19.1249C15.1609 19.1249 15.2797 19.1192 15.3114 19.1172C15.5457 19.1041 15.7669 19.0048 15.9324 18.8384L17.7149 16.7578C17.8773 16.5686 17.9595 16.3235 17.9441 16.0746C17.9287 15.8257 17.8169 15.5926 17.6324 15.4248L13.7378 11.8828Z" fill="#BDBDBD"/>
</svg>

<svg width="20" height="20" fill="none" xmlns="http://www.w3.org/2000/svg">
    <path d="M17.167 9.54h1.916c0-4.915-3.711-8.623-8.634-8.623v1.916c3.893 0 6.718 2.82 6.718 6.708Z" fill="#BDBDBD"/>
    <path d="M10.458 6.667c2.016 0 2.875.86 2.875 2.875h1.917c0-3.091-1.701-4.792-4.792-4.792v1.917Zm3.28 5.216a.96.96 0 0 0-1.333.041l-2.294 2.358c-.552-.105-1.661-.45-2.804-1.59-1.142-1.144-1.488-2.256-1.59-2.804l2.356-2.295a.958.958 0 0 0 .041-1.333l-3.54-3.893a.958.958 0 0 0-1.334-.084L1.16 4.067a.958.958 0 0 0-.277.622c-.015.24-.289 5.914 4.112 10.317 3.839 3.838 8.648 4.119 9.972 4.119.194 0 .313-.006.344-.008a.95.95 0 0 0 .621-.279l1.783-2.08a.958.958 0 0 0-.083-1.333l-3.894-3.542Z" fill="#BDBDBD"/>
</svg>
